!!!!SEGMENT: pl-wtm--r-1421--002_stefani-jozef-suita-allegretto.krn
!!!id: 18xx:2429
!!!COM: Stefani, Józef
!!!OTL: Suita – Allegretto
!!!PDT:
!!!SMS-siglum: PL-Wtm
!!!SMS-shelfmark: R 1421
!!!NIFC-rismID: 1001116120
!!!URL-scan: http://repozytorium.nifc.pl/skany/pl-wtm-nut--r1421
!!!ONB-nifc: UWAGA: części Suity: 1. Maestoso, 2. Allegretto, 3. Andante mosso
!!!SMS-variant:
!!!SMS-altvar:
**kern	**kern	**dynam	**kern	**dynam	**kern	**dynam	**kern	**dynam
*part4	*part4	*part4	*part3	*part3	*part2	*part2	*part1	*part1
*staff5	*staff4	*	*staff3	*	*staff2	*	*staff1	*
*I"[Piano]	*I"[Piano]	*	*I"[Cello]	*	*I"[Violino II]	*	*I"[Violino I]	*
*clefF4	*clefG2	*	*clefF4	*	*clefG2	*	*clefG2	*
*k[f#]	*k[f#]	*	*k[f#]	*	*k[f#]	*	*k[f#]	*
*M3/8	*M3/8	*	*M3/8	*	*M3/8	*	*M3/8	*
*>[A,B,B1,B,B2,C,C1,C,C2,D,E,E,F,F1,F,F2,G]	*>[A,B,B1,B,B2,C,C1,C,C2,D,E,E,F,F1,F,F2,G]	*	*>[A,B,B1,B,B2,C,C1,C,C2,D,E,E,F,F1,F,F2,G]	*	*>[A,B,B1,B,B2,C,C1,C,C2,D,E,E,F,F1,F,F2,G]	*	*>[A,B,B1,B,B2,C,C1,C,C2,D,E,E,F,F1,F,F2,G]	*
=1	=1	=1	=1	=1	=1	=1	=1	=1
*>A	*>A	*>A	*>A	*>A	*>A	*>A	*>A	*>A
*^	*	*	*	*	*	*	*	*
!	!	!	!	!	!LO:DY:a:rj	!	!	!LO:TX:a:t=P:problem:w źródle opis: "Zbiór utworów na skrzypce i fortepian"	!
!	!	!	!	!	!	!	!	!LO:TX:a:t=P:problem:kaudy nut skierowanych w dół różnie - z lewej i prawej strony główki	!
4.G/	8G\L	4.r	.	8GG\L	f	4.r	.	4.r	.
.	8d 8B\	.	.	8B 8D\	.	.	.	.	.
.	8dJ 8B\	.	.	8BJ 8D\	.	.	.	.	.
=2	=2	=2	=2	=2	=2	=2	=2	=2	=2
4.G/	8G\L	8r	.	8GG\L	.	4.r	.	4.r	.
.	8d 8B\	8r	.	8B 8D\	.	.	.	.	.
.	8dJ 8B\	(<16bLL 16g/	.	8BJ 8D\	.	.	.	.	.
.	.	16ccJJ 16a/)	.	.	.	.	.	.	.
=3!|:	=3!|:	=3!|:	=3!|:	=3!|:	=3!|:	=3!|:	=3!|:	=3!|:	=3!|:
*>B	*>B	*>B	*>B	*>B	*>B	*>B	*>B	*>B	*>B
4.G/	8G\L	8ddL 8b'>\	.	8GG\L	.	8r	.	8r	.
.	8d 8B\	8ddJ 8b'>\	.	8B 8D\	.	8r	.	8r	.
.	8dJ 8B\	(>32ee\LLL	.	8BJ 8D\	.	(>32cc\LLL	.	(>32ee\LLL	.
.	.	32dd\	.	.	.	32b\	.	32dd\	.
.	.	32cc#X\	.	.	.	32a#X\	.	32cc#X\	.
.	.	32dd\JJJ)	.	.	.	32b\JJJ)	.	32dd\JJJ)	.
=4	=4	=4	=4	=4	=4	=4	=4	=4	=4
*rep	*rep	*	*	*rep	*	*	*	*	*
4.G/	8G\L	8ggL 8b'>\	.	8GG\L	.	8r	.	8r	.
.	8d 8B\	8ggJ 8b'>\	.	8B 8D\	.	8r	.	8r	.
.	8dJ 8B\	(>32aa\LLL	.	8BJ 8D\	.	(>32cc\LLL	.	(>32aa\LLL	.
.	.	32gg\	.	.	.	32b\	.	32gg\	.
.	.	32ff#\	.	.	.	32a#X\	.	32ff#\	.
.	.	32gg\JJJ)	.	.	.	32b\JJJ)	.	32gg\JJJ)	.
*Xrep	*Xrep	*	*	*Xrep	*	*	*	*	*
=5	=5	=5	=5	=5	=5	=5	=5	=5	=5
*rep	*rep	*	*	*rep	*	*	*	*	*
4.G/	8G\L	8bb 8dd\	.	8GG\L	.	8dd\	.	8bb\	.
*	*	*tremolo	*	*	*	*tremolo	*	*tremolo	*
!	!	!	!	!	!	!LO:TX:a:t=P:problem:łuk kończy się na kresce taktowej	!	!LO:TX:a:t=P:problem:łuk kończy się na kresce taktowej	!
!	!	!LO:TX:a:t=P:problem:cztery kropki nad nutą	!	!	!	!	!	!LO:TX:a:t=P:problem:cztery kropki nad nutą	!
.	8d 8B\	16bbLL 16dd'>\	.	8B 8D\	.	(>16dd\LL	.	(>16bb'>\LL	.
.	.	16bb 16dd'>\	.	.	.	16dd\	.	16bb'>\	.
.	8dJ 8B\	16bb 16dd'>\	.	8BJ 8D\	.	16dd\	.	16bb'>\	.
.	.	16bbJJ 16dd'>\	.	.	.	16dd\JJ	.	16bb'>\JJ	.
*Xrep	*Xrep	*Xtremolo	*	*Xrep	*	*Xtremolo	*	*Xtremolo	*
!!LO:LB:g=original
=6	=6	=6	=6	=6	=6	=6	=6	=6	=6
4.G/	8G\L	8bbL 8dd\	.	8GG\L	.	8dd\L)	.	8bb\L)	.
.	8d 8B\	8bb 8dd\	.	8B 8D\	.	8dd\	.	8bb\	.
.	8dJ 8B\	8cccJ 8ee\	.	8BJ 8D\	.	8ee\J	.	8ccc\J	.
*v	*v	*	*	*	*	*	*	*	*
=7	=7	=7	=7	=7	=7	=7	=7	=7
!	!	!	!LO:TX:t=P:problem:mixed beam	!	!	!	!	!
8D\L	8aa 8cc\	.	8DD/L	.	8cc\	.	8aa\	.
.	8qbb/	.	.	.	.	.	.	.
8d 8c 8F#\	(>16aa\LL	.	8c\ 8D\	.	8r	.	8r	.
.	16gg#X\	.	.	.	.	.	.	.
8dJ 8c 8F#\	16aa\	.	8c\J 8D\	.	8r	.	8r	.
.	16bb\JJ)	.	.	.	.	.	.	.
=8	=8	=8	=8	=8	=8	=8	=8	=8
*rep	*	*	*rep	*	*	*	*	*
!	!	!	!LO:TX:t=P:problem:mixed beam	!	!	!	!	!
8D\L	(>16aaLL 16cc\	.	8DD/L	.	(>16cc\LL	.	(>16aa\LL	.
.	16dd\JJ)	.	.	.	16dd\JJ)	.	16dd\JJ)	.
8d 8c 8F#\	8aaL 8cc\	.	8c\ 8D\	.	8cc\L	.	8aa\L	.
8dJ 8c 8F#\	8bbJ 8dd\	.	8c\J 8D\	.	8dd\J	.	8bb\J	.
*Xrep	*	*	*Xrep	*	*	*	*	*
=9	=9	=9	=9	=9	=9	=9	=9	=9
8d 8B 8G\	8gg 8dd 8b\	.	8GG\L	.	8b\	.	8gg\	.
!	!	!LO:DY:b:rj	!	!	!	!	!	!LO:DY:b:rj
*tremolo	*tremolo	*	*	*	*tremolo	*	*tremolo	*
16dLL 16B 16G\	16ggLL 16dd 16b\	f	8B 8D\	.	16ddLL 16g\	.	16ggLL 16b\	f
16d 16B 16G\	16gg 16dd 16b\	.	.	.	16dd 16g\	.	16gg 16b\	.
16d 16B 16G\	16gg 16dd 16b\	.	8BJ 8D\	.	16dd 16g\	.	16gg 16b\	.
16dJJ 16B 16G\	16ggJJ 16dd 16b\	.	.	.	16ddJJ 16g\	.	16ggJJ 16b\	.
*Xtremolo	*Xtremolo	*	*	*	*Xtremolo	*	*Xtremolo	*
=10	=10	=10	=10	=10	=10	=10	=10	=10
*^	*	*	*	*	*	*	*	*
*	*	*	*	*rep	*	*	*	*	*
!LO:N:vis=4.:xstem	!	!	!	!	!	!	!	!	!
!LO:TX:a:t=P:problem:wymazana kauda	!	!	!	!	!	!	!	!	!
4.G/	8G\L	8gg 8dd 8b\	.	8GG\L	.	8dd 8g\	.	8gg 8b\	.
.	8d 8B\	8r	.	8B 8D\	.	8r	.	8r	.
.	8dJ 8B\	(<16bLL 16g/	.	8BJ 8D\	.	8r	.	8r	.
.	.	16ccJJ 16a/)	.	.	.	.	.	.	.
*	*	*	*	*Xrep	*	*	*	*	*
=11	=11	=11	=11	=11	=11	=11	=11	=11	=11
*	*	*	*	*rep	*	*	*	*	*
4.G/	8G\L	8ddL 8b'>\	.	8GG\L	.	8r	.	8r	.
.	8d 8B\	8ddJ 8b'>\	.	8B 8D\	.	8r	.	8r	.
.	8dJ 8B\	(>32ee\LLL	.	8BJ 8D\	.	(>32cc\LLL	.	(>32ee\LLL	.
.	.	32dd\	.	.	.	32b\	.	32dd\	.
.	.	32cc#X\	.	.	.	32a#X\	.	32cc#X\	.
.	.	32dd\JJJ)	.	.	.	32b\JJJ)	.	32dd\JJJ)	.
*	*	*	*	*Xrep	*	*	*	*	*
!!LO:LB:g=original
=12	=12	=12	=12	=12	=12	=12	=12	=12	=12
4.G/	8G\L	8ggL 8b\	.	8GG\L	.	8r	.	8r	.
.	8d 8B\	8ggJ 8b\	.	8B 8D\	.	8r	.	8r	.
.	8dJ 8B\	(>32aa\LLL	.	8BJ 8D\	.	(>32cc\LLL	.	(>32aa\LLL	.
.	.	32gg\	.	.	.	32b\	.	32gg\	.
.	.	32ff#\	.	.	.	32a#X\	.	32ff#\	.
.	.	32gg\JJJ)	.	.	.	32b\JJJ)	.	32gg\JJJ)	.
=13	=13	=13	=13	=13	=13	=13	=13	=13	=13
*rep	*rep	*	*	*rep	*	*	*	*	*
4.G/	8G\L	8bb 8dd\	.	8GG\L	.	8dd\	.	8bb\	.
*	*	*tremolo	*	*	*	*tremolo	*	*tremolo	*
!	!	!	!	!	!	!	!	!LO:TX:a:t=P:problem:cztery kropki nad nutą	!
.	8d 8B\	16bbLL 16dd\	.	8B 8D\	.	16dd\LL	.	16bb'>\LL	.
.	.	16bb 16dd\	.	.	.	16dd\	.	16bb'>\	.
.	8dJ 8B\	16bb 16dd\	.	8BJ 8D\	.	16dd\	.	16bb'>\	.
.	.	16bbJJ 16dd\	.	.	.	16dd\JJ	.	16bb'>\JJ	.
*Xrep	*Xrep	*Xtremolo	*	*Xrep	*	*Xtremolo	*	*Xtremolo	*
=14	=14	=14	=14	=14	=14	=14	=14	=14	=14
*rep	*rep	*	*	*rep	*	*	*	*	*
4.G/	8G\L	8bbL 8dd\	.	8GG\L	.	8dd\L	.	8bb\L	.
.	8d 8B\	8bb 8dd\	.	8B 8D\	.	8dd\	.	8bb\	.
.	8dJ 8B\	8cccJ 8ee\	.	8BJ 8D\	.	8ee\J	.	8ccc\J	.
*Xrep	*Xrep	*	*	*Xrep	*	*	*	*	*
*v	*v	*	*	*	*	*	*	*	*
=15	=15	=15	=15	=15	=15	=15	=15	=15
!	!	!	!LO:TX:t=P:problem:mixed beam	!	!	!	!	!
8D\L	8gg#XL 8b\	.	8DD/L	.	8r	.	8r	.
8d 8c 8F#\	8aaJ 8cc\	.	8c\ 8D\	.	8r	.	8r	.
8dJ 8c 8F#\	(>32bb\LLL	.	8c\J 8D\	.	(>32dd\LLL	.	(>32bb\LLL	.
.	32aa\	.	.	.	32cc\	.	32aa\	.
.	32gg#X\	.	.	.	32b\	.	32gg#X\	.
.	32aa\JJJ)	.	.	.	32cc\JJJ)	.	32aa\JJJ)	.
=16	=16	=16	=16	=16	=16	=16	=16	=16
*rep	*	*	*rep	*	*	*	*	*
!	!	!	!LO:TX:t=P:problem:mixed beam	!	!	!	!	!
8D\L	8ddd\	.	8DD/L	.	8ff#\	.	8ddd\	.
8d 8c 8F#\	8eeL 8cc\	.	8c\ 8D\	.	8r	.	8r	.
8dJ 8c 8F#\	8ff#J 8cc\	.	8c\J 8D\	.	8r	.	8r	.
*Xrep	*	*	*Xrep	*	*	*	*	*
=17	=17	=17	=17	=17	=17	=17	=17	=17
*	*	*	*^	*	*	*	*	*
8d 8B 8G\	8gg 8b\	.	8GG/	4GG\	.	8r	.	8r	.
*tremolo	*tremolo	*	*tremolo	*	*	*tremolo	*	*tremolo	*
!	!	!	!	!	!	!	!	!	!LO:DY:b:rj
16dLL 16B 16G\	16ggLL 16dd 16b\	.	16DLL 16GG/	.	.	16ddLL 16g\	.	16ggLL 16b\	f
16d 16B 16G\	16gg 16dd 16b\	.	16D 16GG/	.	.	16dd 16g\	.	16gg 16b\	.
16d 16B 16G\	16gg 16dd 16b\	.	16D 16GG/	8ryy	.	16dd 16g\	.	16gg 16b\	.
16dJJ 16B 16G\	16ggJJ 16dd 16b\	.	16DJJ 16GG/	.	.	16ddJJ 16g\	.	16ggJJ 16b\	.
*Xtremolo	*Xtremolo	*	*Xtremolo	*	*	*Xtremolo	*	*Xtremolo	*
*	*	*	*v	*v	*	*	*	*	*
=18	=18	=18	=18	=18	=18	=18	=18	=18
*>B1	*>B1	*>B1	*>B1	*>B1	*>B1	*>B1	*>B1	*>B1
8d 8B 8G\	8gg 8dd 8b\	.	8D 8GG/	.	8dd 8g\	.	8gg 8b\	.
!	!	!	!	!	!	!	!LO:TX:a:i:t=Ia.	!
8r	8r	.	8r	.	8r	.	8r	.
8r	16bLL 16g/	.	8r	.	8r	.	8r	.
.	16ccJJ 16a/	.	.	.	.	.	.	.
!!LO:PB:g=original
=19:|!	=19:|!	=19:|!	=19:|!	=19:|!	=19:|!	=19:|!	=19:|!	=19:|!
*>B2	*>B2	*>B2	*>B2	*>B2	*>B2	*>B2	*>B2	*>B2
8d 8B 8G\	8gg 8dd 8b\	.	8D 8GG/	.	8dd 8g\	.	8gg 8b\	.
!	!	!	!	!	!	!	!LO:TX:a:i:t=2	!
8r	8r	.	8r	.	8r	.	8r	.
8r	8r	.	8r	.	8r	.	8r	.
=20!|:	=20!|:	=20!|:	=20!|:	=20!|:	=20!|:	=20!|:	=20!|:	=20!|:
*>C	*>C	*>C	*>C	*>C	*>C	*>C	*>C	*>C
*^	*	*	*	*	*	*	*	*
!	!	!	!LO:DY:b:rj	!	!	!	!	!	!
4.D/	8D\L	8dd'>\L	p	8D\	.	8r	.	4.r	.
!	!	!	!	!	!	!	!LO:DY:a:rj	!	!
.	8c 8F#\	8ee 8cc'>\	.	8r	.	8f#L 8c/	p	.	.
.	8cJ 8F#\	8ff#J 8dd'>\	.	8r	.	8f#J 8c/	.	.	.
=21	=21	=21	=21	=21	=21	=21	=21	=21	=21
*rep	*rep	*	*	*	*	*rep	*	*	*
4.D/	8D\L	8ff#L 8dd'>\	.	8DD/	.	8r	.	4.r	.
.	8c 8F#\	8gg 8ee'>\	.	8r	.	8f#L 8c/	.	.	.
.	8cJ 8F#\	8aaJ 8ff#'>\	.	8r	.	8f#J 8c/	.	.	.
*Xrep	*Xrep	*	*	*	*	*Xrep	*	*	*
=22	=22	=22	=22	=22	=22	=22	=22	=22	=22
4.D/	8D\L	8ccc 8ee\	.	8D\	.	8r	.	8ccc 8ee\	.
.	8B 8G\	[>4bb [>4dd^<\	.	8r	.	8gL 8B/	.	4bb 4dd^<\	.
.	8BJ 8G\	.	.	8r	.	8gJ 8B/	.	.	.
=23	=23	=23	=23	=23	=23	=23	=23	=23	=23
*rep	*rep	*	*	*	*	*rep	*	*	*
4.D/	8D\L	8bb]L 8dd\]	.	8DD/	.	8r	.	4.r	.
.	8B 8G\	8.ccc 8.ee\	.	8r	.	8gL 8B/	.	.	.
.	8BJ 8G\	.	.	8r	.	8gJ 8B/	.	.	.
.	.	16gg#XJk 16b\	.	.	.	.	.	.	.
*Xrep	*Xrep	*	*	*	*	*Xrep	*	*	*
=24	=24	=24	=24	=24	=24	=24	=24	=24	=24
4.D/	8D\L	8bb 8dd\	.	8D/	.	8r	.	8bb 8dd\	.
.	8c 8F#\	[>4aa [>4cc^<\	.	8r	.	8f#L 8c/	.	4aa 4cc^<\	.
.	8cJ 8F#\	.	.	8r	.	8f#J 8c/	.	.	.
!!LO:LB:g=original
=25	=25	=25	=25	=25	=25	=25	=25	=25	=25
4.D/	8D\L	8aa]L 8cc\]	.	8D/	.	8r	.	4.r	.
.	8c 8F#\	8.bb 8.dd\	.	8r	.	8f#L 8c/	.	.	.
.	8cJ 8F#\	.	.	8r	.	8f#J 8c/	.	.	.
.	.	16ff#Jk 16a\	.	.	.	.	.	.	.
=26	=26	=26	=26	=26	=26	=26	=26	=26	=26
!	!	!	!	!	!	!	!	!	!LO:DY:b:rj
4.D/	8D\L	(>8ggL 8b\	.	(>8GG\L	.	8r	.	(>8gg\L	p
.	8B 8G\	8dd\)	.	8D\)	.	8gL 8B/	.	8dd\)	.
.	8BJ 8G\	8bbJ 8dd'>\	.	8G'>\J	.	8gJ 8B/	.	8bbJ 8dd\	.
=27	=27	=27	=27	=27	=27	=27	=27	=27	=27
*rep	*rep	*	*	*rep	*	*rep	*	*rep	*
4.D/	8D\L	(>8ggL 8b\	.	(>8GG\L	.	8r	.	(>8gg\L	.
.	8B 8G\	8dd\)	.	8D\)	.	8gL 8B/	.	8dd\)	.
.	8BJ 8G\	8bbJ 8dd'>\	.	8G'>\J	.	8gJ 8B/	.	8bbJ 8dd\	.
*Xrep	*Xrep	*	*	*Xrep	*	*Xrep	*	*Xrep	*
=28	=28	=28	=28	=28	=28	=28	=28	=28	=28
!	!	!	!LO:DY:b:rj	!	!	!	!	!	!LO:DY:b:rj
4.C/	8C\L	8ccc 8ee\	ff	8C/	.	8cc\	.	8ccc 8ee\	ff
*	*	*tremolo	*	*tremolo	*	*tremolo	*	*tremolo	*
.	8A 8E\	16cccLL 16ee\	.	16C/LL	.	16cc\LL	.	16cccLL 16ee\	.
.	.	16ccc 16ee\	.	16C/	.	16cc\	.	16ccc 16ee\	.
.	8AJ 8E\	16ccc 16ee\	.	16C/	.	16cc\	.	16ccc 16ee\	.
.	.	16cccJJ 16ee\	.	16C/JJ	.	16cc\JJ	.	16cccJJ 16ee\	.
*	*	*Xtremolo	*	*Xtremolo	*	*Xtremolo	*	*Xtremolo	*
=29	=29	=29	=29	=29	=29	=29	=29	=29	=29
*rep	*rep	*	*	*	*	*	*	*	*
4.C/	8C\L	8cccL 8ee\	.	8C/	.	8cc\L	.	8cccL 8ee\	.
.	8A 8E\	8bb 8dd\	.	8r	.	8b\	.	8bb 8dd\	.
!	!	!	!	!	!	!	!	!LO:S:s=1:note:problem:note-level slur	!
!	!	!	!	!	!	!	!	!LO:S:s=2:note:problem:note-level slur	!
.	8AJ 8E\	8aa#XJ 8cc#X\	.	8r	.	(>8a#X\J	.	(>8aa#XJ (>8cc#X\	.
*Xrep	*Xrep	*	*	*	*	*	*	*	*
=30	=30	=30	=30	=30	=30	=30	=30	=30	=30
!	!	!	!	!	!	!	!	!LO:S:s=1:note:problem:note-level slur	!
!	!	!	!	!	!	!	!	!LO:S:s=2:note:problem:note-level slur	!
4.D/	8D\L	8bb 8dd\	.	8D\	.	8b\)	.	8bb) 8dd\)	.
*	*	*tremolo	*	*tremolo	*	*tremolo	*	*tremolo	*
.	8B 8G\	16bbLL 16dd\	.	16D\LL	.	16b\LL	.	16bbLL 16dd\	.
.	.	16bb 16dd\	.	16D\	.	16b\	.	16bb 16dd\	.
.	8BJ 8G\	16bb 16dd\	.	16D\	.	16b\	.	16bb 16dd\	.
.	.	16bbJJ 16dd\	.	16D\JJ	.	16b\JJ	.	16bbJJ 16dd\	.
*	*	*Xtremolo	*	*Xtremolo	*	*Xtremolo	*	*Xtremolo	*
=31	=31	=31	=31	=31	=31	=31	=31	=31	=31
*rep	*rep	*	*	*	*	*	*	*	*
4.D/	8D\L	8bbL 8dd\	.	8D\	.	8b\L	.	8bbL 8dd\	.
.	8B 8G\	8bb 8dd\	.	8r	.	8b\	.	8bb 8dd\	.
.	8BJ 8G\	8cccJ 8ee\	.	8r	.	8cc\J	.	8cccJ 8ee\	.
*Xrep	*Xrep	*	*	*	*	*	*	*	*
!!LO:LB:g=original
=32	=32	=32	=32	=32	=32	=32	=32	=32	=32
*	*	*^	*	*	*	*	*	*	*
!	!	!	!	!	!LO:TX:t=P:problem:mixed beam	!	!	!	!	!
4.D/	8D\L	(>8gg#X/L	8b\L	.	8DD/L	.	8b\L	.	(>8gg#X\L	.
.	8c 8F#\	8aa/J)	8cc\J	.	8c\ 8D\	.	8cc\J	.	8aa\J)	.
.	8cJ 8F#\	(>32bb\LLL	32ryy	.	8c\J 8D\	.	(>32cc\LLL	.	(>32bb\LLL	.
.	.	32aa\	32ryy	.	.	.	32b\	.	32aa\	.
.	.	32gg#\	32ryy	.	.	.	32a#X\	.	32gg#\	.
.	.	32aa\JJJ)	32ryy	.	.	.	32b\JJJ)	.	32aa\JJJ)	.
*	*	*v	*v	*	*	*	*	*	*	*
=33	=33	=33	=33	=33	=33	=33	=33	=33	=33
*rep	*rep	*	*	*rep	*	*	*	*	*
!	!	!	!	!LO:TX:t=P:problem:mixed beam	!	!	!	!	!
4.D/	8D\L	8ddd\L	.	8DD/L	.	8ff#\	.	8ddd\	.
.	8c 8F#\	8ee 8cc\	.	8c\ 8D\	.	8r	.	8r	.
.	8cJ 8F#\	8ff#J 8cc\	.	8c\J 8D\	.	8r	.	8r	.
*Xrep	*Xrep	*	*	*Xrep	*	*	*	*	*
*v	*v	*	*	*	*	*	*	*	*
=34	=34	=34	=34	=34	=34	=34	=34	=34
8B 8G\	8gg 8b\	.	8GG/	.	8r	.	8r	.
*tremolo	*tremolo	*	*tremolo	*	*tremolo	*	*tremolo	*
!	!	!LO:DY:b:rj	!	!	!	!	!	!LO:DY:b:rj
16BLL 16G\	16ggLL 16dd 16b\	ff	16DLL 16GG/	.	16ddLL 16g\	.	16ggLL 16b\	ff
16B 16G\	16gg 16dd 16b\	.	16D 16GG/	.	16dd 16g\	.	16gg 16b\	.
16B 16G\	16gg 16dd 16b\	.	16D 16GG/	.	16dd 16g\	.	16gg 16b\	.
16BJJ 16G\	16ggJJ 16dd 16b\	.	16DJJ 16GG/	.	16ddJJ 16g\	.	16ggJJ 16b\	.
*Xtremolo	*Xtremolo	*	*Xtremolo	*	*Xtremolo	*	*Xtremolo	*
=35	=35	=35	=35	=35	=35	=35	=35	=35
*>C1	*>C1	*>C1	*>C1	*>C1	*>C1	*>C1	*>C1	*>C1
8B 8G\	8gg 8dd 8b\	.	8D 8GG/	.	8dd 8g\	.	8gg 8b\	.
!	!	!	!	!	!	!	!LO:TX:i:a:t=Ia	!
8r	8r	.	8r	.	8r	.	8r	.
8r	8r	.	8r	.	8r	.	8r	.
=36:|!	=36:|!	=36:|!	=36:|!	=36:|!	=36:|!	=36:|!	=36:|!	=36:|!
*>C2	*>C2	*>C2	*>C2	*>C2	*>C2	*>C2	*>C2	*>C2
8B 8G\	8gg 8dd 8b\	.	8D 8GG/	.	8dd 8g\	.	8gg 8b\	.
!	!	!	!	!	!	!	!LO:TX:i:a:t=2	!
8r	8r	.	8r	.	8r	.	8r	.
!	!	!	!LO:TX:i:b:t=V&colon; S&colon;	!	!	!	!	!
8r	(<16bLL 16g/	.	8r	.	8r	.	8r	.
.	16ccJJ 16a/)	.	.	.	.	.	.	.
!!LO:PB:g=original
=37	=37	=37	=37	=37	=37	=37	=37	=37
*>D	*>D	*>D	*>D	*>D	*>D	*>D	*>D	*>D
*^	*	*	*	*	*	*	*	*
4.G/	8G\L	8ddL 8b'>\	.	8GG\L	.	8r	.	8r	.
.	8d 8B\	8ddJ 8b'>\	.	8B 8D\	.	8r	.	8r	.
.	8dJ 8B\	(>32ee\LLL	.	8BJ 8D\	.	(>32cc\LLL	.	(>32ee\LLL	.
.	.	32dd\	.	.	.	32b\	.	32dd\	.
.	.	32cc#X\	.	.	.	32a#X\	.	32cc#X\	.
.	.	32dd\JJJ)	.	.	.	32b\JJJ)	.	32dd\JJJ)	.
=38	=38	=38	=38	=38	=38	=38	=38	=38	=38
*rep	*rep	*	*	*rep	*	*	*	*	*
4.G/	8G\L	8ggL 8b'>\	.	8GG\L	.	8b\L	.	8gg\L	.
.	8d 8B\	8ggJ 8b'>\	.	8B 8D\	.	8b\J	.	8gg\J	.
.	8dJ 8B\	(>32aa\LLL	.	8BJ 8D\	.	(>32cc\LLL	.	(>32aa\LLL	.
.	.	32gg\	.	.	.	32b\	.	32gg\	.
.	.	32ff#\	.	.	.	32a#X\	.	32ff#\	.
.	.	32gg\JJJ)	.	.	.	32b\JJJ)	.	32gg\JJJ)	.
*Xrep	*Xrep	*	*	*Xrep	*	*	*	*	*
=39	=39	=39	=39	=39	=39	=39	=39	=39	=39
*rep	*rep	*	*	*rep	*	*	*	*	*
4.G/	8G\L	8bb 8dd\	.	8GG\L	.	8dd\	.	8bb\	.
*	*	*tremolo	*	*	*	*tremolo	*	*tremolo	*
.	8d 8B\	16bbLL 16dd\	.	8B 8D\	.	16dd\LL	.	16bb\LL	.
.	.	16bb 16dd\	.	.	.	16dd\	.	16bb\	.
.	8dJ 8B\	16bb 16dd\	.	8BJ 8D\	.	16dd\	.	16bb\	.
.	.	16bbJJ 16dd\	.	.	.	16dd\JJ	.	16bb\JJ	.
*Xrep	*Xrep	*Xtremolo	*	*Xrep	*	*Xtremolo	*	*Xtremolo	*
=40	=40	=40	=40	=40	=40	=40	=40	=40	=40
*rep	*rep	*	*	*rep	*	*	*	*	*
4.G/	8G\L	8bbL 8dd\	.	8GG\L	.	8dd\L	.	8bb\L	.
.	8d 8B\	8bb 8dd\	.	8B 8D\	.	8dd\	.	8bb\	.
.	8dJ 8B\	8cccJ 8ee\	.	8BJ 8D\	.	8ee\J	.	8ccc\J	.
*Xrep	*Xrep	*	*	*Xrep	*	*	*	*	*
*v	*v	*	*	*	*	*	*	*	*
=41	=41	=41	=41	=41	=41	=41	=41	=41
!	!	!	!LO:TX:t=P:problem:mixed beam	!	!	!	!	!
8D\L	8aa 8cc\	.	8DD/L	.	8cc\	.	8aa\	.
.	8qbb/	.	.	.	.	.	.	.
8d 8c 8F#\	(>16aa\LL	.	8c\ 8D\	.	8r	.	8r	.
.	16gg#X\	.	.	.	.	.	.	.
8dJ 8c 8F#\	16aa\	.	8c\J 8D\	.	8r	.	8r	.
.	16bb\JJ)	.	.	.	.	.	.	.
=42	=42	=42	=42	=42	=42	=42	=42	=42
*rep	*	*	*rep	*	*	*	*	*
!	!	!	!LO:TX:t=P:problem:mixed beam	!	!	!	!	!
8D\L	(>16aaLL 16cc\	.	8DD/L	.	(>16cc\LL	.	(>16aa\LL	.
.	16dd\JJ)	.	.	.	16dd\JJ)	.	16dd\JJ)	.
8d 8c 8F#\	8aaL 8cc\	.	8c\ 8D\	.	8cc\L	.	8aa\L	.
8dJ 8c 8F#\	8bbJ 8dd\	.	8c\J 8D\	.	8dd\J	.	8bb\J	.
*Xrep	*	*	*Xrep	*	*	*	*	*
=43	=43	=43	=43	=43	=43	=43	=43	=43
*^	*	*	*	*	*	*	*	*
4.G/	8G\L	8gg 8b\	.	8GG\L	.	8b\	.	8gg\	.
*	*	*tremolo	*	*	*	*tremolo	*	*tremolo	*
!	!	!	!LO:DY:b:rj	!	!	!	!	!	!LO:DY:b:rj
.	8d 8B\	16ggLL 16dd 16b\	ff	8B 8D\	.	16b\LL	.	16ggLL 16b\	f
.	.	16gg 16dd 16b\	.	.	.	16b\	.	16gg 16b\	.
.	8dJ 8B\	16gg 16dd 16b\	.	8BJ 8D\	.	16b\	.	16gg 16b\	.
.	.	16ggJJ 16dd 16b\	.	.	.	16b\JJ	.	16ggJJ 16b\	.
*	*	*Xtremolo	*	*	*	*Xtremolo	*	*Xtremolo	*
!!LO:LB:g=original
=44	=44	=44	=44	=44	=44	=44	=44	=44	=44
4.G/	8G\L	8gg 8b\	.	8GG\L	.	8dd 8g\	.	8gg 8b\	.
.	8d 8B\	8r	.	8B 8D\	.	8r	.	8r	.
.	8dJ 8B\	(<16bLL 16g/	.	8BJ 8D\	.	8r	.	8r	.
.	.	16ccJJ 16a/)	.	.	.	.	.	.	.
=45	=45	=45	=45	=45	=45	=45	=45	=45	=45
*rep	*rep	*	*	*rep	*	*	*	*	*
4.G/	8G\L	8ddL 8b'>\	.	8GG\L	.	8r	.	8r	.
.	8d 8B\	8ddJ 8b'>\	.	8B 8D\	.	8r	.	8r	.
.	8dJ 8B\	(>32ee\LLL	.	8BJ 8D\	.	(>32cc\LLL	.	(>32ee\LLL	.
.	.	32dd\	.	.	.	32b\	.	32dd\	.
.	.	32cc#X\	.	.	.	32a#X\	.	32cc#X\	.
.	.	32dd\JJJ)	.	.	.	32b\JJJ)	.	32dd\JJJ)	.
*Xrep	*Xrep	*	*	*Xrep	*	*	*	*	*
=46	=46	=46	=46	=46	=46	=46	=46	=46	=46
*rep	*rep	*	*	*rep	*	*	*	*	*
4.G/	8G\L	8ggL 8b'>\	.	8GG\L	.	8b\L	.	8gg\L	.
.	8d 8B\	8ggJ 8b'>\	.	8B 8D\	.	8b\J	.	8gg\J	.
.	8dJ 8B\	(>32aa\LLL	.	8BJ 8D\	.	(>32cc\LLL	.	(>32aa\LLL	.
.	.	32gg\	.	.	.	32b\	.	32gg\	.
.	.	32ff#\	.	.	.	32a#X\	.	32ff#\	.
.	.	32gg\JJJ)	.	.	.	32b\JJJ)	.	32gg\JJJ)	.
*Xrep	*Xrep	*	*	*Xrep	*	*	*	*	*
=47	=47	=47	=47	=47	=47	=47	=47	=47	=47
*rep	*rep	*	*	*rep	*	*	*	*	*
4.G/	8G\L	8bb 8dd\	.	8GG\L	.	8dd\	.	8bb\	.
*	*	*tremolo	*	*	*	*tremolo	*	*tremolo	*
.	8d 8B\	16bbLL 16dd\	.	8B 8D\	.	16dd\LL	.	16bb\LL	.
.	.	16bb 16dd\	.	.	.	16dd\	.	16bb\	.
.	8dJ 8B\	16bb 16dd\	.	8BJ 8D\	.	16dd\	.	16bb\	.
.	.	16bbJJ 16dd\	.	.	.	16dd\JJ	.	16bb\JJ	.
*Xrep	*Xrep	*Xtremolo	*	*Xrep	*	*Xtremolo	*	*Xtremolo	*
=48	=48	=48	=48	=48	=48	=48	=48	=48	=48
*rep	*rep	*	*	*rep	*	*	*	*	*
4.G/	8G\L	8bbL 8dd\	.	8GG\L	.	8dd\L	.	8bb\L	.
.	8d 8B\	8bb 8dd\	.	8B 8D\	.	8dd\	.	8bb\	.
.	8dJ 8B\	8cccJ 8ee\	.	8BJ 8D\	.	8ee\J	.	8ccc\J	.
*Xrep	*Xrep	*	*	*Xrep	*	*	*	*	*
*v	*v	*	*	*	*	*	*	*	*
=49	=49	=49	=49	=49	=49	=49	=49	=49
!	!	!	!LO:TX:t=P:problem:mixed beam	!	!	!	!	!
8D\L	8gg#XL 8b\	.	8DD/L	.	8r	.	8r	.
8d 8c 8F#\	8aaJ 8cc\	.	8c\ 8D\	.	8r	.	8r	.
8dJ 8c 8F#\	(>32bb\LLL	.	8c\J 8D\	.	(>32dd\LLL	.	(>32bb\LLL	.
.	32aa\	.	.	.	32cc\	.	32aa\	.
.	32gg#X\	.	.	.	32b\	.	32gg#X\	.
.	32aa\JJJ)	.	.	.	32cc\JJJ)	.	32aa\JJJ)	.
=50	=50	=50	=50	=50	=50	=50	=50	=50
*^	*	*	*	*	*	*	*	*
*	*	*	*	*rep	*	*	*	*	*
!	!	!	!	!LO:TX:t=P:problem:mixed beam	!	!	!	!	!
4.D/	8D\L	8ddd\L	.	8DD/L	.	8ff#\	.	8ddd\	.
.	8c 8A 8F#\	8ee 8cc\	.	8c\ 8D\	.	8r	.	8r	.
.	8cJ 8A 8F#\	8ff#J 8cc\	.	8c\J 8D\	.	8r	.	8r	.
*	*	*	*	*Xrep	*	*	*	*	*
*v	*v	*	*	*	*	*	*	*	*
!!LO:LB:g=original
=51	=51	=51	=51	=51	=51	=51	=51	=51
8B 8G\	8gg 8b\	.	8GG/	.	8r	.	8r	.
*tremolo	*tremolo	*	*tremolo	*	*tremolo	*	*tremolo	*
!	!	!	!	!	!	!	!	!LO:DY:b:rj
16BLL 16G\	16ggLL 16dd 16b\	ff	16DLL 16GG/	.	16ddLL 16g\	.	16ggLL 16b\	f
16B 16G\	16gg 16dd 16b\	.	16D 16GG/	.	16dd 16g\	.	16gg 16b\	.
16B 16G\	16gg 16dd 16b\	.	16D 16GG/	.	16dd 16g\	.	16gg 16b\	.
16BJJ 16G\	16ggJJ 16dd 16b\	.	16DJJ 16GG/	.	16ddJJ 16g\	.	16ggJJ 16b\	.
*Xtremolo	*Xtremolo	*	*Xtremolo	*	*Xtremolo	*	*Xtremolo	*
*kcancel	*kcancel	*	*kcancel	*	*kcancel	*	*kcancel	*
=52	=52	=52	=52	=52	=52	=52	=52	=52
4B 4G\	4gg 4dd 4b\	.	4D 4GG/	.	4dd 4g\	.	4gg 4b\	.
8r	8r	.	8r	.	8r	.	8r	.
=53!|:	=53!|:	=53!|:	=53!|:	=53!|:	=53!|:	=53!|:	=53!|:	=53!|:
*>E	*>E	*>E	*>E	*>E	*>E	*>E	*>E	*>E
*k[]	*k[]	*	*k[]	*	*k[]	*	*k[]	*
!	!	!	!	!LO:DY:b:rj	!	!	!	!LO:DY:b:rj
8C\L	8eeL 8cc 8g\	ff	8C/L	ff	8c/L	.	8eL 8G/	ff
8E\	8r	.	8GG/	.	8r	.	8r	.
8G\J	8eeJ 8cc 8g\	.	8E/J	.	8c/J	.	8eJ 8G/	.
=54	=54	=54	=54	=54	=54	=54	=54	=54
*rep	*rep	*	*rep	*	*rep	*	*rep	*
8C\L	8eeL 8cc 8g\	.	8C/L	.	8c/L	.	8eL 8G/	.
8E\	8r	.	8GG/	.	8r	.	8r	.
8G\J	8eeJ 8cc 8g\	.	8E/J	.	8c/J	.	8eJ 8G/	.
*Xrep	*Xrep	*	*Xrep	*	*Xrep	*	*Xrep	*
=55	=55	=55	=55	=55	=55	=55	=55	=55
*rep	*rep	*	*rep	*	*rep	*	*rep	*
8C\L	8eeL 8cc 8g\	.	8C/L	.	8c/L	.	8eL 8G/	.
8E\	8r	.	8GG/	.	8r	.	8r	.
8G\J	8eeJ 8cc 8g\	.	8E/J	.	8c/J	.	8eJ 8G/	.
*Xrep	*Xrep	*	*Xrep	*	*Xrep	*	*Xrep	*
=56	=56	=56	=56	=56	=56	=56	=56	=56
*rep	*rep	*	*rep	*	*rep	*	*rep	*
8C\L	8eeL 8cc 8g\	.	8C/L	.	8c/L	.	8eL 8G/	.
8E\	8r	.	8GG/	.	8r	.	8r	.
8G\J	8eeJ 8cc 8g\	.	8E/J	.	8c/J	.	8eJ 8G/	.
*Xrep	*Xrep	*	*Xrep	*	*Xrep	*	*Xrep	*
=57	=57	=57	=57	=57	=57	=57	=57	=57
8C\L	8g/	.	8C/	.	8r	.	8r	.
8e 8c 8G\	[>4gg [>4ee^<\	.	8r	.	4e/	.	[<4g^</	.
8eJ 8c 8G\	.	.	8r	.	.	.	.	.
=58	=58	=58	=58	=58	=58	=58	=58	=58
*rep	*	*	*	*	*	*	*	*
8C\L	8ggL] 8ee\]	.	8C/	.	8e/	.	8g/]	.
8e 8c 8G\	(>16aaL 16ff\	.	8r	.	(<16f/LL	.	(<16a/LL	.
.	16gg 16ee\	.	.	.	16e/	.	16g/	.
8eJ 8c 8G\	16ff 16dd\	.	8r	.	16d/	.	16f/	.
.	16eeJJ 16cc\)	.	.	.	16c/JJ	.	16e/JJ	.
*Xrep	*	*	*	*	*	*	*	*
=59	=59	=59	=59	=59	=59	=59	=59	=59
*^	*	*	*	*	*	*	*	*
4.G/	8G\L	8ff 8dd\	.	8GG\L	.	8d/)	.	8f/)	.
.	.	8qgg/	.	.	.	.	.	.	.
.	8f 8B\	(>16ffLL 16dd\	.	8D\	.	8r	.	8r	.
.	.	16ee 16cc#X\	.	.	.	.	.	.	.
.	8fJ 8B\	16ff 16dd\	.	8G\J	.	8r	.	8r	.
.	.	16ggJJ 16ee\)	.	.	.	.	.	.	.
!!LO:PB:g=original
=60	=60	=60	=60	=60	=60	=60	=60	=60	=60
4.G/	8G\L	(>8ffL 8dd\	.	8GG/L	.	4.r	.	4.r	.
.	8f 8B\	8g\)	.	8D/	.	.	.	.	.
.	8fJ 8B\	8ffJ 8dd'>\	.	8G/J	.	.	.	.	.
=61	=61	=61	=61	=61	=61	=61	=61	=61	=61
*rep	*rep	*	*	*	*	*	*	*	*
4.G/	8G\L	8g/	.	8GG/	.	8r	.	8r	.
.	8f 8B\	[>4ff [>4dd^<\	.	8r	.	[<4d/	.	[<4f^</	.
.	8fJ 8B\	.	.	8r	.	.	.	.	.
*Xrep	*Xrep	*	*	*	*	*	*	*	*
=62	=62	=62	=62	=62	=62	=62	=62	=62	=62
*rep	*rep	*	*	*	*	*	*	*	*
4.G/	8G\L	8ff] 8dd\]	.	8GG/	.	8d/]	.	8f/]	.
.	8f 8B\	(>16ggLL 16ee\	.	8r	.	(<16e/LL	.	(<16g/LL	.
.	.	16ff 16dd\	.	.	.	16d/	.	16f/	.
.	8fJ 8B\	16ee 16cc\	.	8r	.	16c/	.	16e/	.
.	.	16ddJJ 16b\)	.	.	.	16B/JJ	.	16d/JJ	.
*Xrep	*Xrep	*	*	*	*	*	*	*	*
*v	*v	*	*	*	*	*	*	*	*
=63	=63	=63	=63	=63	=63	=63	=63	=63
8C\L	8ee 8cc\	.	8C\L	.	8c/)	.	8e/)	.
.	8qff/	.	.	.	.	.	.	.
8e 8c 8G\	(>16eeLL 16cc\	.	8E\	.	8r	.	8r	.
.	16dd# 16b\	.	.	.	.	.	.	.
8eJ 8c 8G\	16ee 16cc\	.	8G\J	.	8r	.	8r	.
.	16ffJJ 16dd#\)	.	.	.	.	.	.	.
=64	=64	=64	=64	=64	=64	=64	=64	=64
*rep	*	*	*rep	*	*	*	*	*
8C\L	(>8eeL 8cc\	.	8C\L	.	4.r	.	4.r	.
8e 8c 8G\	8g\)	.	8E\	.	.	.	.	.
8eJ 8c 8G\	8eeJ 8cc'>\	.	8G\J	.	.	.	.	.
*Xrep	*	*	*Xrep	*	*	*	*	*
=65	=65	=65	=65	=65	=65	=65	=65	=65
*rep	*	*	*	*	*	*	*	*
8C\L	8g/	.	8C/	.	8r	.	8r	.
8e 8c 8G\	[>4gg [>4ee\	.	8r	.	[<4g/	.	[>4ee^<\	.
8eJ 8c 8G\	.	.	8r	.	.	.	.	.
*Xrep	*	*	*	*	*	*	*	*
=66	=66	=66	=66	=66	=66	=66	=66	=66
*rep	*	*	*	*	*	*	*	*
8C\L	8gg] 8ee\]	.	8C/	.	8g/]	.	8ee\]	.
8e 8c 8G\	(>16aaL 16ff\L	.	8r	.	(<16a/LL	.	(>16ff\LL	.
.	16gg 16ee\	.	.	.	16g/	.	16ee\	.
8eJ 8c 8G\	16ff 16dd\	.	8r	.	16f/	.	16dd\	.
.	16eeJJ 16cc\)	.	.	.	16e/JJ	.	16cc\JJ)	.
*Xrep	*	*	*	*	*	*	*	*
=67	=67	=67	=67	=67	=67	=67	=67	=67
*^	*	*	*	*	*	*	*	*
4.G/	8G\L	8ffL 8dd\	.	8GG/L	.	8f/)	.	8dd\	.
.	.	8qgg/	.	.	.	.	.	.	.
.	8f 8B\	(16ffL 16dd\	.	8D/	.	8r	.	8r	.
.	.	16ee 16cc#X\	.	.	.	.	.	.	.
.	8fJ 8B\	16ff 16dd\	.	8G/J	.	8r	.	8r	.
.	.	16ggJJ 16ee\)	.	.	.	.	.	.	.
!!LO:LB:g=original
=68	=68	=68	=68	=68	=68	=68	=68	=68	=68
4.G/	8G\L	(>8ffL 8dd\	.	8GG/L	.	4.r	.	4.r	.
.	8f 8B\	8g\)	.	8D/	.	.	.	.	.
.	8fJ 8B\	8ff|>J 8dd\	.	8G/J	.	.	.	.	.
=69	=69	=69	=69	=69	=69	=69	=69	=69	=69
*rep	*rep	*	*	*	*	*	*	*	*
4.G/	8G\L	8f/	.	8GG/	.	8r	.	8r	.
.	8f 8B\	[>4ff 4dd^<\	.	8r	.	[<4f/	.	[>4dd^<\	.
.	8fJ 8B\	.	.	8r	.	.	.	.	.
*Xrep	*Xrep	*	*	*	*	*	*	*	*
=70	=70	=70	=70	=70	=70	=70	=70	=70	=70
*rep	*rep	*	*	*	*	*	*	*	*
4.G/	8G\L	8ff]L 8dd\	.	8GG/	.	8f/]	.	8dd\]	.
.	8f 8B\	(>16ggL 16ee\	.	8r	.	16g/LL	.	(>16ee\LL	.
.	.	16ff 16dd\	.	.	.	16f/	.	16dd\	.
.	8fJ 8B\	16ee 16cc\	.	8r	.	16e/	.	16cc\	.
.	.	16ddJJ 16b\)	.	.	.	16d/JJ	.	16b\JJ)	.
*Xrep	*Xrep	*	*	*	*	*	*	*	*
*v	*v	*	*	*	*	*	*	*	*
=71	=71	=71	=71	=71	=71	=71	=71	=71
8C\L	8eeL 8cc\	.	8C/	.	8e/	.	8cc\	.
.	8qff/	.	.	.	.	.	.	.
8e 8c 8G\	(>16eeL 16cc\	.	8r	.	8r	.	8r	.
.	16dd 16b\	.	.	.	.	.	.	.
8eJ 8c 8G\	16ee 16cc\	.	8r	.	8r	.	8r	.
.	16ffJJ 16dd\)	.	.	.	.	.	.	.
=72	=72	=72	=72	=72	=72	=72	=72	=72
*rep	*	*	*	*	*	*	*	*
8C\L	4ee 4cc\	.	8C/	.	4.r	.	4.r	.
8e 8c 8G\	.	.	8r	.	.	.	.	.
8eJ 8c 8G\	8r	.	8r	.	.	.	.	.
*Xrep	*	*	*	*	*	*	*	*
=73:|!|:	=73:|!|:	=73:|!|:	=73:|!|:	=73:|!|:	=73:|!|:	=73:|!|:	=73:|!|:	=73:|!|:
*>F	*>F	*>F	*>F	*>F	*>F	*>F	*>F	*>F
*clefG2	*	*	*	*	*	*	*	*
*^	*	*	*	*	*	*	*	*
!	!	!	!LO:DY:b:rj	!	!	!	!	!	!
8c#X/L	4.c#\	8aa\	p	4.r	.	4.r	.	4.r	.
8a 8g 8e/	.	16aa\LL	.	.	.	.	.	.	.
.	.	16aa\	.	.	.	.	.	.	.
8aJ 8g 8e/	.	16aa\	.	.	.	.	.	.	.
.	.	16aa\JJ	.	.	.	.	.	.	.
=74	=74	=74	=74	=74	=74	=74	=74	=74	=74
*rep	*rep	*	*	*	*	*	*	*	*
8c#X/L	4.c#\	16.aa\LL	.	4.r	.	4.r	.	4.r	.
.	.	32bb-X\JJk	.	.	.	.	.	.	.
8a 8g 8e/	.	8aa\L	.	.	.	.	.	.	.
8aJ 8g 8e/	.	8gg\J	.	.	.	.	.	.	.
*Xrep	*Xrep	*	*	*	*	*	*	*	*
=75	=75	=75	=75	=75	=75	=75	=75	=75	=75
!	!	!	!LO:DY:b:rj	!	!	!	!	!	!
8d/L	4.d\	16.ff\LL	f	(>4D\	.	16.f/LL	.	16.ff\LL	.
.	.	32ee\JJk	.	.	.	32e/JJk	.	32ee\JJk	.
8a 8f/	.	8ff\L	.	.	.	8f/L	.	8ff\L	.
8aJ 8f/	.	8dd\J	.	8F\)	.	8d/J	.	8dd\J	.
!!LO:LB:g=original
=76	=76	=76	=76	=76	=76	=76	=76	=76	=76
8d/L	4.d\	16.ff\LL	.	(>4A\	.	16.f/LL	.	16.ff\LL	.
.	.	32ee\JJk	.	.	.	32e/JJk	.	32ee\JJk	.
8a 8f/	.	8ff\L	.	.	.	8f/L	.	8ff\L	.
8aJ 8f/	.	8dd\J	.	8d\)	.	8d/J	.	8dd\J	.
=77	=77	=77	=77	=77	=77	=77	=77	=77	=77
8B/L	4.B\	8gg\	.	4.r	.	4.r	.	4.r	.
8g 8f 8d/	.	16gg\LL	.	.	.	.	.	.	.
.	.	16gg\	.	.	.	.	.	.	.
8gJ 8f 8d/	.	16gg\	.	.	.	.	.	.	.
.	.	16gg\JJ	.	.	.	.	.	.	.
=78	=78	=78	=78	=78	=78	=78	=78	=78	=78
*rep	*rep	*	*	*	*	*	*	*	*
8B/L	4.B\	16.gg\LL	.	4.r	.	4.r	.	4.r	.
.	.	32aa\JJk	.	.	.	.	.	.	.
8g 8f 8d/	.	8gg\L	.	.	.	.	.	.	.
8gJ 8f 8d/	.	8ff\J	.	.	.	.	.	.	.
*Xrep	*Xrep	*	*	*	*	*	*	*	*
=79	=79	=79	=79	=79	=79	=79	=79	=79	=79
8c/L	4.c\	16.ee\LL	.	(>4C\	.	16.e/LL	.	16.ee\LL	.
.	.	32dd\JJk	.	.	.	32d/JJk	.	32dd\JJk	.
8g 8e/	.	8ee\L	.	.	.	8e/L	.	8ee\L	.
8gJ 8e/	.	8cc\J	.	8E\	.	8c/J	.	8cc\J	.
=80	=80	=80	=80	=80	=80	=80	=80	=80	=80
*rep	*rep	*	*	*	*	*rep	*	*rep	*
8c/L	4.c\	16.ee\LL	.	4G\	.	16.e/LL	.	16.ee\LL	.
.	.	32dd\JJk	.	.	.	32d/JJk	.	32dd\JJk	.
8g 8e/	.	8ee\L	.	.	.	8e/L	.	8ee\L	.
8gJ 8e/	.	8cc\J	.	8c\)	.	8c/J	.	8cc\J	.
*Xrep	*Xrep	*	*	*	*	*Xrep	*	*Xrep	*
*clefF4	*	*	*	*	*	*	*	*	*
=81	=81	=81	=81	=81	=81	=81	=81	=81	=81
4.F#X/	8F#\L	8dd\	.	4.r	.	4.r	.	4.r	.
.	8d 8c 8A\	16dd\L	.	.	.	.	.	.	.
.	.	16dd\	.	.	.	.	.	.	.
.	8dJ 8c 8A\	16dd\	.	.	.	.	.	.	.
.	.	16dd\J	.	.	.	.	.	.	.
=82	=82	=82	=82	=82	=82	=82	=82	=82	=82
*rep	*rep	*	*	*	*	*	*	*	*
4.F#X/	8F#\L	16.dd\LL	.	4.r	.	4.r	.	4.r	.
.	.	32ee\JJk	.	.	.	.	.	.	.
.	8d 8c 8A\	8.dd\L	.	.	.	.	.	.	.
.	8dJ 8c 8A\	.	.	.	.	.	.	.	.
.	.	16cc\Jk	.	.	.	.	.	.	.
*Xrep	*Xrep	*	*	*	*	*	*	*	*
*v	*v	*	*	*	*	*	*	*	*
=83	=83	=83	=83	=83	=83	=83	=83	=83
!	!	!LO:DY:b:rj	!	!	!	!	!	!
8d 8B 8G\	8b\L	f	8G\	.	8r	.	8r	.
.	(<8qaa/	.	.	.	8qa/	.	(8qaa/	.
8r	16.gg\L)	.	8r	.	16.g/LL	.	16.gg\LL)	.
.	32ff#|>X\JJ	.	.	.	32f#X/JK	.	32ff#|>X\JK	.
8G\	8gg|>\	.	8GG/	.	8g/J	.	8gg|>\J	.
!!LO:PB:g=original
=84	=84	=84	=84	=84	=84	=84	=84	=84
8G\	8g/	.	8G\	.	8G/	.	8g/	.
.	(<8qa/	.	(<8qA/	.	.	.	(<8qa/	.
8r	16.g/LL)	.	16.G\LL)	.	8r	.	16.g/LL)	.
.	32f#|<X/	.	32F#|>X\JJk	.	.	.	32f#X/JJk	.
8G\	8g|</JJ	.	8G|>\	.	8r	.	8g/	.
=85	=85	=85	=85	=85	=85	=85	=85	=85
8G\	8g/	.	8GG/	.	4.r	.	8g 8G/	.
16G\LL	16g/LL	.	8r	.	.	.	8r	.
16G\	16g/	.	.	.	.	.	.	.
16G\	16g/	.	8r	.	.	.	8r	.
16G\JJ	16g/JJ	.	.	.	.	.	.	.
=86	=86	=86	=86	=86	=86	=86	=86	=86
8G\	8g/	.	8GG/	.	8r	.	8r	.
*tremolo	*tremolo	*	*tremolo	*	*tremolo	*	*tremolo	*
!	!	!LO:DY:b:rj	!	!	!	!	!	!LO:DY:b:rj
16GLL 16GG/	16ggLL 16g\	f	16G\LL	.	16gLL 16G/	.	16gg\LL	f
16G 16GG/	16gg 16g\	.	16G\	.	16g 16G/	.	16gg\	.
16G 16GG/	16gg 16g\	.	16G\	.	16g 16G/	.	16gg\	.
16GJJ 16GG/	16ggJJ 16g\	.	16G\JJ	.	16gJJ 16G/	.	16gg\JJ	.
*Xtremolo	*Xtremolo	*	*Xtremolo	*	*Xtremolo	*	*Xtremolo	*
=87	=87	=87	=87	=87	=87	=87	=87	=87
8C\L	8eeL 8cc 8g\	.	8CL 8CC/	.	8c/L	.	8eL 8G/	.
8E\	8r	.	8GG/	.	8r	.	8r	.
8G\J	8eeJ 8cc 8g\	.	8E/J	.	8c/J	.	8eJ 8G/	.
=88	=88	=88	=88	=88	=88	=88	=88	=88
*rep	*rep	*	*rep	*	*rep	*	*rep	*
8C\L	8eeL 8cc 8g\	.	8CL 8CC/	.	8c/L	.	8eL 8G/	.
8E\	8r	.	8GG/	.	8r	.	8r	.
8G\J	8eeJ 8cc 8g\	.	8E/J	.	8c/J	.	8eJ 8G/	.
*Xrep	*Xrep	*	*Xrep	*	*Xrep	*	*Xrep	*
=89	=89	=89	=89	=89	=89	=89	=89	=89
!	!	!	!LO:TX:a:t=P:problem:w źrodle puste takty do taktu 104 (włącznie)	!	!LO:TX:a:t=P:problem:w źrodle puste takty do taktu 104 (włącznie)	!	!	!
8C\L	8g/	.	8C/yy	.	8ryy	.	8r	.
8e 8c 8G\	[>4gg [>4ee\	.	8ryy	.	4e/yy	.	(>4gg 4g^</	.
8eJ 8c 8G\	.	.	8ryy	.	.	.	.	.
=90	=90	=90	=90	=90	=90	=90	=90	=90
*rep	*	*	*	*	*	*	*	*
8C\L	8ggL] 8ee\]	.	8C/yy	.	8e/yy	.	8g/L)	.
8e 8c 8G\	(>16aaL 16ff\	.	8ryy	.	(<16f/LLyy	.	(<16a/L	.
.	16gg 16ee\	.	.	.	16e/yy	.	16g/	.
8eJ 8c 8G\	16ff 16dd\	.	8ryy	.	16d/yy	.	16f/	.
.	16eeJJ 16cc\	.	.	.	16c/JJyy	.	16e/JJ	.
*Xrep	*	*	*	*	*	*	*	*
=91	=91	=91	=91	=91	=91	=91	=91	=91
*^	*	*	*	*	*	*	*	*
4.G/	8G\L	8ff 8dd\)	.	8GG\Lyy	.	8d/)yy	.	8f/)	.
.	.	8qgg/	.	.	.	.	.	.	.
.	8f 8B\	(>16ffLL 16dd\	.	8D\yy	.	8ryy	.	8r	.
.	.	16ee 16cc#X\	.	.	.	.	.	.	.
.	8fJ 8B\	16ff 16dd\	.	8G\Jyy	.	8ryy	.	8r	.
.	.	16ggJJ 16ee\)	.	.	.	.	.	.	.
!!LO:LB:g=original
=92	=92	=92	=92	=92	=92	=92	=92	=92	=92
4.G/	8G\L	(>8ffL 8dd\	.	8GG/Lyy	.	4.ryy	.	4.r	.
.	8f 8B\	8g\)	.	8D/yy	.	.	.	.	.
.	8fJ 8B\	8ffJ 8dd'>\	.	8G/Jyy	.	.	.	.	.
=93	=93	=93	=93	=93	=93	=93	=93	=93	=93
*rep	*rep	*	*	*	*	*	*	*	*
4.G/	8G\L	8g/	.	8GG/yy	.	8ryyyy	.	8r	.
.	8f 8B\	[>4ff [>4dd^<\	.	8ryy	.	[<4d/yy	.	[<4f^</	.
.	8fJ 8B\	.	.	8ryy	.	.	.	.	.
*Xrep	*Xrep	*	*	*	*	*	*	*	*
=94	=94	=94	=94	=94	=94	=94	=94	=94	=94
*rep	*rep	*	*	*	*	*	*	*	*
4.G/	8G\L	8ff]L 8dd\]	.	8GG/yy	.	8d/]yy	.	8f/L]	.
.	8f 8B\	(>16ggL 16ee\	.	8ryy	.	(<16e/LLyy	.	(<16g/L	.
.	.	16ff 16dd\	.	.	.	16d/yy	.	16f/	.
.	8fJ 8B\	16ee 16cc\	.	8ryy	.	16c/yy	.	16e/	.
.	.	16ddJJ 16b\	.	.	.	16B/JJyy	.	16d/JJ	.
*Xrep	*Xrep	*	*	*	*	*	*	*	*
=95	=95	=95	=95	=95	=95	=95	=95	=95	=95
4.C/	8C\L	8ee 8cc\)	.	8C\Lyy	.	8c/)yy	.	8e/)	.
.	.	8qff/	.	.	.	.	.	.	.
.	8e 8c 8G\	(>16eeLL 16cc\	.	8E\yy	.	8ryy	.	8r	.
.	.	16dd 16b\	.	.	.	.	.	.	.
.	8eJ 8c 8G\	16ee 16cc\	.	8G\Jyy	.	8ryy	.	8r	.
.	.	16ffJJ 16dd\)	.	.	.	.	.	.	.
=96	=96	=96	=96	=96	=96	=96	=96	=96	=96
*	*	*	*	*	*	*	*	*^	*
*rep	*rep	*	*	*rep	*	*	*	*	*	*
4.C/	8C\L	(>8eeL 8cc\	.	8C\Lyy	.	4.ryy	.	4.r	8r	.
.	8e 8c 8G\	8g\)	.	8E\yy	.	.	.	.	8ryy	.
.	8eJ 8c 8G\	8eeJ 8cc'>\	.	8G\Jyy	.	.	.	.	8ryy	.
*Xrep	*Xrep	*	*	*Xrep	*	*	*	*	*	*
*	*	*	*	*	*	*	*	*v	*v	*
=97	=97	=97	=97	=97	=97	=97	=97	=97	=97
*rep	*rep	*	*	*	*	*	*	*	*
4.C/	8C\L	8g/	.	8C/yy	.	8ryy	.	8r	.
.	8e 8c 8G\	[>4gg [>4ee^<\	.	8ryy	.	[<4g/yy	.	[>4ee^<\	.
.	8eJ 8c 8G\	.	.	8ryy	.	.	.	.	.
*Xrep	*Xrep	*	*	*	*	*	*	*	*
=98	=98	=98	=98	=98	=98	=98	=98	=98	=98
*rep	*rep	*	*	*	*	*	*	*	*
4.C/	8C\L	8gg]L 8ee\]	.	8C/yy	.	8g/]yy	.	8ee\L]	.
.	8e 8c 8G\	(>16aaL 16ff\	.	8ryy	.	(<16a/LLyy	.	(>16ff\L	.
.	.	16gg 16ee\	.	.	.	16g/yy	.	16ee\	.
.	8eJ 8c 8G\	16ff 16dd\	.	8ryy	.	16f/yy	.	16dd\	.
.	.	16eeJJ 16cc\	.	.	.	16e/JJyy	.	16cc\JJ)	.
*Xrep	*Xrep	*	*	*	*	*	*	*	*
=99	=99	=99	=99	=99	=99	=99	=99	=99	=99
4.G/	8G\L	8ffL 8dd\)	.	8GG/Lyy	.	8f/)yy	.	8dd\	.
.	.	8qgg/	.	.	.	.	.	.	.
.	8f 8B\	(>16ffL 16dd\	.	8D/yy	.	8ryy	.	8r	.
.	.	16ee 16cc#X\	.	.	.	.	.	.	.
.	8fJ 8B\	16ff 16dd\	.	8G/Jyy	.	8ryy	.	8r	.
.	.	16ggJJ 16ee\)	.	.	.	.	.	.	.
=100	=100	=100	=100	=100	=100	=100	=100	=100	=100
*rep	*rep	*	*	*	*	*	*	*	*
!	!	!	!	!	!	!	!	!LO:TX:a:t=I	!
4.G/	8G\L	(>8ffL 8dd\	.	8GG/Lyy	.	4.ryy	.	4.r	.
.	8f 8B\	8g\)	.	8D/yy	.	.	.	.	.
.	8fJ 8B\	8ffJ 8dd'>\	.	8G/Jyy	.	.	.	.	.
*Xrep	*Xrep	*	*	*	*	*	*	*	*
!!LO:LB:g=original
=101	=101	=101	=101	=101	=101	=101	=101	=101	=101
4.G/	8G\L	8g/	.	8GG/yy	.	8ryy	.	8r	.
.	8f 8B\	[>4ff [>4dd\	.	8ryy	.	[<4f/yy	.	[>4dd^\<	.
.	8fJ 8B\	.	.	8ryy	.	.	.	.	.
=102	=102	=102	=102	=102	=102	=102	=102	=102	=102
*rep	*rep	*	*	*	*	*	*	*	*
4.G/	8G\L	8ff]L 8dd\]	.	8GG/yy	.	8f/]yy	.	8dd\]LL	.
.	8f 8B\	(>16ggL 16ee\	.	8ryy	.	(<16g/LLyy	.	(>16ee\	.
.	.	16ff 16dd\	.	.	.	16f/yy	.	16dd\	.
.	8fJ 8B\	16ee 16cc\	.	8ryy	.	16e/yy	.	16cc\	.
.	.	16ddJJ 16b\)	.	.	.	16d/JJ)yy	.	16b\JJ)	.
*Xrep	*Xrep	*	*	*	*	*	*	*	*
*v	*v	*	*	*	*	*	*	*	*
=103	=103	=103	=103	=103	=103	=103	=103	=103
8C\L	8eeL 8cc\	.	8C/yy	.	8e/yy	.	8cc\	.
.	8qff/	.	.	.	.	.	.	.
8e 8c 8G\	(>16eeL 16cc\	.	8ryy	.	8ryy	.	8r	.
.	16dd 16b\	.	.	.	.	.	.	.
8eJ 8c 8G\	16ee 16cc\	.	8ryy	.	8ryy	.	8r	.
.	16ffJJ 16dd\)	.	.	.	.	.	.	.
=104	=104	=104	=104	=104	=104	=104	=104	=104
*>F1	*>F1	*>F1	*>F1	*>F1	*>F1	*>F1	*>F1	*
*rep	*	*	*	*	*	*	*	*
!	!	!	!	!	!	!	!LO:TX:a:i:t=Ima	!
8C\L	4ee 4cc\	.	8C/yy	.	4.ryy	.	4.r	.
!	!LO:TX:a:i:t=Ia	!	!	!	!	!	!	!
8e 8c 8G\	.	.	8ryy	.	.	.	.	.
8eJ 8c 8G\	8r	.	8ryy	.	.	.	.	.
*Xrep	*	*	*	*	*	*	*	*
=105:|!	=105:|!	=105:|!	=105:|!	=105:|!	=105:|!	=105:|!	=105:|!	=105:|!
*>F2	*>F2	*>F2	*>F2	*>F2	*>F2	*>F2	*>F2	*>F2
!	!	!	!	!	!	!	!LO:TX:a:i:t=2	!
8C/	8ee 8cc 8g\	.	8C/	.	8r	.	8r	.
!	!LO:TX:a:i:t=2	!	!	!	!	!	!	!
8r	8r	.	8r	.	8r	.	8r	.
!	!	!	!	!	!	!	!	!LO:DY:b:rj
8r	(<16bLL 16g/	.	8r	.	(16g/LL	.	(<16b/LL	f
.	16ccJJ 16a/)	.	.	.	16a/JJ)	.	16cc/JJ)	.
=106	=106	=106	=106	=106	=106	=106	=106	=106
*>G	*>G	*>G	*>G	*>G	*>G	*>G	*>G	*>G
*^	*	*	*	*	*	*	*	*
!	!	!	!	!	!LO:DY:b:rj	!	!	!	!
4.G/	8G\L	8ddL 8b'>\	.	16GG\LL	f	8b/L	.	8dd\L	.
.	.	.	.	16D\	.	.	.	.	.
.	8d 8B\	8ddJ 8b'>\	.	16B\	.	8b/J	.	8dd\J	.
.	.	.	.	16D\J	.	.	.	.	.
.	8dJ 8B\	(>32ee\LLL	.	8G\J	.	(>32cc\LLL	.	(>32ee\LLL	.
.	.	32dd\	.	.	.	32b\	.	32dd\	.
.	.	32cc#X\	.	.	.	32a#X\	.	32cc#X\	.
.	.	32dd\JJJ)	.	.	.	32b\JJJ)	.	32dd\JJJ)	.
=107	=107	=107	=107	=107	=107	=107	=107	=107	=107
*rep	*rep	*	*	*rep	*	*	*	*	*
4.G/	8G\L	8ggL 8b'>\	.	16GG\LL	.	8b\L	.	8gg\L	.
.	.	.	.	16D\	.	.	.	.	.
.	8d 8B\	8ggJ 8b'>\	.	16B\	.	8b\J	.	8gg\J	.
.	.	.	.	16D\J	.	.	.	.	.
.	8dJ 8B\	(>32aa\LLL	.	8G\J	.	(>32cc\LLL	.	(>32aa\LLL	.
.	.	32gg\	.	.	.	32b\	.	32gg\	.
!	!	!LO:SIC:v:s=32ff#	!	!	!	!	!	!LO:SIC:v:s=32ff#	!
.	.	32ff\	.	.	.	32a#X\	.	32ff\	.
.	.	32gg\JJJ)	.	.	.	32b\JJJ)	.	32gg\JJJ)	.
*Xrep	*Xrep	*	*	*Xrep	*	*	*	*	*
*v	*v	*	*	*	*	*	*	*	*
!!LO:PB:g=original
=108	=108	=108	=108	=108	=108	=108	=108	=108
*k[f#]	*k[f#]	*	*k[f#]	*	*k[f#]	*	*k[f#]	*
*^	*	*	*	*	*	*	*	*
4.G/	8G\L	8bb 8dd\	.	(>16GG\LL	.	8dd\	.	8bb\	.
.	.	.	.	16D\	.	.	.	.	.
*	*	*tremolo	*	*	*	*tremolo	*	*tremolo	*
.	8d 8B\	16bbLL 16dd\	.	16B'>\)	.	16dd\LL	.	16bb\LL	.
.	.	16bb 16dd\	.	16D'>\J	.	16dd\	.	16bb\	.
.	8dJ 8B\	16bb 16dd\	.	8G'>\J	.	16dd\	.	16bb\	.
.	.	16bbJJ 16dd\	.	.	.	16dd\JJ	.	16bb\JJ	.
*	*	*Xtremolo	*	*	*	*Xtremolo	*	*Xtremolo	*
=109	=109	=109	=109	=109	=109	=109	=109	=109	=109
*rep	*rep	*	*	*rep	*	*	*	*	*
4.G/	8G\L	8bbL 8dd\	.	(>16GG\LL	.	8dd\L	.	8bb\L	.
.	.	.	.	16D\	.	.	.	.	.
.	8d 8B\	8bb 8dd\	.	16B'>\)	.	8dd\	.	8bb\	.
.	.	.	.	16D'>\J	.	.	.	.	.
.	8dJ 8B\	8cccJ 8ee\	.	8G'>\J	.	8ee\J	.	8ccc\J	.
*Xrep	*Xrep	*	*	*Xrep	*	*	*	*	*
*v	*v	*	*	*	*	*	*	*	*
=110	=110	=110	=110	=110	=110	=110	=110	=110
8D\L	8aa 8cc\	.	(>(>16DD\LL	.	8cc\	.	8aa\	.
.	.	.	16D\)	.	.	.	.	.
.	8qbb/	.	.	.	8qdd/	.	8qbb/	.
8d 8c 8F#\	(>16aa\LL	.	16F#'\	.	(>16cc\LL	.	(>16aa\LL	.
.	16gg#X\	.	16D'\J)	.	16b\	.	16gg#X\	.
8dJ 8c 8F#\	16aa\	.	8F#'\J	.	16cc\	.	16aa\	.
.	16bb\JJ)	.	.	.	16dd\JJ)	.	16bb\JJ)	.
=111	=111	=111	=111	=111	=111	=111	=111	=111
*rep	*	*	*rep	*	*	*	*	*
8D\L	(>16aaLL 16cc\	.	(>(>16DD\LL	.	(>16cc\LL	.	(>16aa\LL	.
.	16dd\JJ)	.	16D\)	.	16dd\JJ)	.	16dd\JJ)	.
8d 8c 8F#\	8aaL 8cc\	.	16F#'>\	.	8cc\L	.	8aa\L	.
.	.	.	16D'>\J)	.	.	.	.	.
8dJ 8c 8F#\	8bbJ 8dd\	.	8F#'>\J	.	8dd\J	.	8bb\J	.
*Xrep	*	*	*Xrep	*	*	*	*	*
=112	=112	=112	=112	=112	=112	=112	=112	=112
*^	*	*	*	*	*	*	*	*
4.G/	8G\L	8gg 8b\	.	(>(>16GG\LL	.	8b\	.	8gg\	.
.	.	.	.	16D\)	.	.	.	.	.
*	*	*tremolo	*	*	*	*tremolo	*	*tremolo	*
.	8d 8B\	16ggLL 16dd 16b\	.	16B'>\	.	16ddLL 16g\	.	16ggLL 16b\	.
.	.	16gg 16dd 16b\	.	16D'>\J)	.	16dd 16g\	.	16gg 16b\	.
.	8dJ 8B\	16gg 16dd 16b\	.	8G'>\J	.	16dd 16g\	.	16gg 16b\	.
.	.	16ggJJ 16dd 16b\	.	.	.	16ddJJ 16g\	.	16ggJJ 16b\	.
*	*	*Xtremolo	*	*	*	*Xtremolo	*	*Xtremolo	*
=113	=113	=113	=113	=113	=113	=113	=113	=113	=113
*rep	*rep	*	*	*	*	*	*	*	*
4.G/	8G\L	8gg 8dd 8b\	.	8GG/	.	8dd 8g\	.	8gg 8b\	.
.	8d 8B\	8r	.	8r	.	8r	.	8r	.
.	8dJ 8B\	(<16bLL 16g/	.	8r	.	(<16g/LL	.	(<16b/LL	.
.	.	16ccJJ 16a/)	.	.	.	16a/JJ)	.	16cc/JJ)	.
*Xrep	*Xrep	*	*	*	*	*	*	*	*
!!LO:LB:g=original
=114	=114	=114	=114	=114	=114	=114	=114	=114	=114
4.G/	8G\L	8ddL 8b'>\	.	(>16GG\LL	.	8b'>\L	.	8dd'>\L	.
.	.	.	.	16D\)	.	.	.	.	.
.	8d 8B\	8ddJ 8b'>\	.	16B'>\	.	8b'>\J	.	8dd'>\J	.
.	.	.	.	16D'>\J	.	.	.	.	.
.	8dJ 8B\	(>32ee\LLL	.	8G'>\J	.	(>32cc\LLL	.	(>32ee\LLL	.
.	.	32dd\	.	.	.	32b\	.	32dd\	.
.	.	32cc#X\	.	.	.	32a#X\	.	32cc#X\	.
.	.	32dd\JJJ)	.	.	.	32b\JJJ)	.	32dd\JJJ)	.
=115	=115	=115	=115	=115	=115	=115	=115	=115	=115
*rep	*rep	*	*	*rep	*	*	*	*	*
4.G/	8G\L	8ggL 8b'>\	.	(>16GG\LL	.	8b'>\L	.	8gg'>\L	.
.	.	.	.	16D\)	.	.	.	.	.
.	8d 8B\	8ggJ 8b'>\	.	16B'>\	.	8b'>\J	.	8gg'>\J	.
.	.	.	.	16D'>\J	.	.	.	.	.
.	8dJ 8B\	(>32aa\LLL	.	8G'>\J	.	(>32cc\LLL	.	(>32aa\LLL	.
.	.	32gg\	.	.	.	32b\	.	32gg\	.
.	.	32ff#\	.	.	.	32a#X\	.	32ff#\	.
.	.	32gg\JJJ)	.	.	.	32b\JJJ)	.	32gg\JJJ)	.
*Xrep	*Xrep	*	*	*Xrep	*	*	*	*	*
=116	=116	=116	=116	=116	=116	=116	=116	=116	=116
*rep	*rep	*	*	*rep	*	*	*	*	*
4.G/	8G\L	8bb 8dd\	.	(>16GG\LL	.	8dd\	.	8bb\	.
.	.	.	.	16D\)	.	.	.	.	.
*	*	*tremolo	*	*	*	*tremolo	*	*tremolo	*
.	8d 8B\	16bbLL 16dd\	.	16B'>\	.	16dd\LL	.	16bb\LL	.
.	.	16bb 16dd\	.	16D'>\J	.	16dd\	.	16bb\	.
.	8dJ 8B\	16bb 16dd\	.	8G'>\J	.	16dd\	.	16bb\	.
.	.	16bbJJ 16dd\	.	.	.	16dd\JJ	.	16bb\JJ	.
*Xrep	*Xrep	*Xtremolo	*	*Xrep	*	*Xtremolo	*	*Xtremolo	*
=117	=117	=117	=117	=117	=117	=117	=117	=117	=117
*rep	*rep	*	*	*rep	*	*	*	*	*
4.G/	8G\L	8bbL 8dd\	.	(>16GG\LL	.	8dd\L	.	8bb\L	.
.	.	.	.	16D\)	.	.	.	.	.
.	8d 8B\	8bb 8dd\	.	16B'>\	.	8dd\	.	8bb\	.
.	.	.	.	16D'>\J	.	.	.	.	.
.	8dJ 8B\	8cccJ 8ee\	.	8G'>\J	.	8ee\J	.	8ccc\J	.
*Xrep	*Xrep	*	*	*Xrep	*	*	*	*	*
*v	*v	*	*	*	*	*	*	*	*
=118	=118	=118	=118	=118	=118	=118	=118	=118
8D\L	(>8gg#XL 8b\	.	(<16DD/LL	.	(8b\L	.	(>8gg#X\L	.
.	.	.	16D/)	.	.	.	.	.
8d 8c 8F#\	8aaJ 8cc\)	.	16F#'</	.	8cc\J)	.	8aa\J)	.
.	.	.	16D'</JJ	.	.	.	.	.
8dJ 8c 8F#\	32bb\LLL	.	8F#\	.	(>32dd\LLL	.	32bb\LLL	.
.	(>32aa\	.	.	.	32cc\	.	(>32aa\	.
.	32gg#X\	.	.	.	32b\	.	32gg#X\	.
.	32aa\JJJ)	.	.	.	32cc\JJJ)	.	32aa\JJJ)	.
=119	=119	=119	=119	=119	=119	=119	=119	=119
*^	*	*	*	*	*	*	*	*
4.D/	8D\L	8ddd\L	.	(<16DD/LL	.	8ff#\	.	8ddd\L	.
.	.	.	.	16D/)	.	.	.	.	.
.	8c 8A\	8ee 8cc\	.	16A'</	.	8ccL 8d/	.	8ee\	.
.	.	.	.	16D'</JJ	.	.	.	.	.
.	8cJ 8A\	8ff#J 8cc\	.	8d\	.	8ccJ 8d/	.	8ff#\J	.
*v	*v	*	*	*	*	*	*	*	*
=120	=120	=120	=120	=120	=120	=120	=120	=120
!LO:TX:t=P:problem:brak taktu	!LO:TX:t=P:problem:brak taktu	!	!	!	!	!	!	!
4.ryy	4.ryy	.	16GG\LL	.	8b 8d/	.	8gg\	.
.	.	.	16D\	.	.	.	.	.
*	*	*	*	*	*tremolo	*	*tremolo	*
.	.	.	16B\	.	16bLL 16d/	.	16ggLL 16b\	.
.	.	.	16D\J	.	16b 16d/	.	16gg 16b\	.
.	.	.	8G\J	.	16b 16d/	.	16gg 16b\	.
.	.	.	.	.	16bJJ 16d/	.	16ggJJ 16b\	.
*	*	*	*	*	*Xtremolo	*	*Xtremolo	*
!!LO:LB:g=original
=121	=121	=121	=121	=121	=121	=121	=121	=121
8B 8G\	8gg 8dd 8b\	.	8GG/	.	8b 8d/	.	8gg 8b\	.
8r	8r	.	8r	.	8r	.	8r	.
!	!LO:TX:i:a:t=Seque Andante mosso.	!	!	!	!	!	!	!
8r;>	8r;>	.	8r;>	.	8r;>	.	8r;>	.
==	==	==	==	==	==	==	==	==
*-	*-	*-	*-	*-	*-	*-	*-	*-
!!!system-decoration: {(s1,s2,s3)}{(s4,s5)}
!!!RDF**kern: | = vertical stroke
!!!RDF**kern: > = above
!!!RDF**kern: < = below
!!!ENC: Krzysztof Stępień
!!!END: 2021-06-18
!!!EED: Antoni Szymański
!!!EST: 2021-06-27
